X:1
T:The Knock of the Nail-Piercèd Hand
T:The Knock of the Nail-Piercèd Hand
T:John Robson Sweney
T:John Ralston Clements, 1897
T:Public Domain Courtesy of the Cyber Hymnal™
T:Public Domain Courtesy of the Cyber Hymnal™
C:John Robson Sweney
Z:Public Domain
Z:Courtesy of the Cyber Hymnal™
%%score ( 1 2 ) ( 3 4 )
L:1/8
Q:1/4=100
M:4/4
K:F
V:1 treble 
V:2 treble 
V:3 bass 
V:4 bass 
V:1
 F[FG] | [FA]2 [FA]>[FA] [FA]2 [FA]>[FA] | [FB]2 F>[FG] [FA]2 [Fc]2 | %3
w: 1.~Dost thou|know at thy bolt- e- d|heart’s door to- night, The|
w: 2.~O- ut-|side He has stood thro’ the|length of the years, Since|
w: 3.~Yo- u|turn not a- way when a|friend’s at your door, Here’s|
w: 4.~All the|pain and the shame of His|death on the tree A|
 [Ec]2 [EG][FA] [EB]2 [CF][EG] | [FA]6 F[FG] | [FA]2 [FA][FA] [FA]2 [Fc][Fc] | %6
w: Sav- ior in meek- ness doth|stand, A- nd|longs for ad- miss- ion? Pray,|
w: Mo- ther the love- flame first|flamed; You have|spurned and re- ject- ed, O|
w: one there’s none like in the|land, Wh- o|asks to come in to for-|
w: wel- come from you should com-|mand, Since the|weight of your sins in His|
 [Fc]2 [FB][FB] [GB]2 [DA][DG] | [CF]2 C[CF] [FA]2 [EA][EG] | [CF]6 ||"^Refrain" [_EF]>[EF] | %10
w: li- st- en now To the|knock of the nail- pierc- èd|hand.||
w: give heed to- night, To the|knock of the nail- pierc- èd|hand.|Heed the|
w: ev- er a- bide; Heed the|knock of the nail- pierc- èd|hand.||
w: bo- dy He bore; Heed the|knock of the nail- pierc- èd|hand.||
 [DB]2 [DB][DB] [Fd]2 [Fc][FA] | [Ac]6 [Ac]>[Ac] | [GB]2 [Ac]>[GB] [FA]2 [GB]>[FA] | %13
w: |||
w: knock of the nail- pierc- èd|hand, Heed the|knock of the nail- pierc- èd|
w: |||
w: |||
 G6 !fermata!C>[CF] | [FA]2 [CG][CF] [FA]2 | [CG][CF] | FF[FB][Fd] [Fc]2 [Fc][Fc] | %17
w: ||||
w: hand; Swing the|door o- pen wide,|Bid Him|en- ter and a- bide, Heed the|
w: ||||
w: ||||
 [Ec]2 [EG][FA] [EB]2 [EA]>[CG] | F4- [CF]2 |] %19
w: ||
w: knock of the nail- pierc- èd|hand. *|
w: ||
w: ||
V:2
 F x | x8 | x2 F3/2 x9/2 | x8 | x6 F x | x8 | x8 | x2 C x5 | x6 || x2 | x8 | x8 | x8 | %13
 (E2 D2 E2) C3/2 x/ | x6 | x2 | FF x6 | x8 | C2 D>D x2 |] %19
V:3
 [F,A,][F,B,] | [F,C]2 [F,C]>[F,C] [F,C]2 [F,_E]>[F,E] | [F,D]2 [F,_D]>[F,D] [F,C]2 [F,A,]2 | %3
w: ~ ~|~ ~ ~ ~ ~ ~|~ ~ ~ ~ ~|
 [C,G,]2 [C,B,][C,A,] [C,G,]2 [C,A,][C,C] | [F,C]6 [F,A,][F,B,] | %5
w: ~ ~ ~ ~ ~ ~|~ ~ ~|
 [F,C]2 [F,C][F,C] [F,C]2 [A,,_E][A,,E] | [B,,D]2 [B,,D][B,,D] [B,,D]2 [A,,C][B,,B,] | %7
w: ~ ~ ~ ~ ~ ~|~ ~ ~ ~ ~ ~|
 [C,A,]2 [C,A,][C,A,] [C,C]2 [C,B,][C,B,] | [F,A,]6 || [F,A,]>[F,A,] | %10
w: ~ ~ ~ ~ ~ ~|~|Heed the|
 [B,,F,]2 [B,,F,][B,,F,] [B,,B,]2 [F,A,][F,C] | [F,C]2 [F,C]>[F,A,] [F,C]2 [F,C]>[F,C] | %12
w: knock, heed the knock of the|nail- pierc- èd hand, Heed the|
 [C,C]2 [C,C]>[C,C] [F,C]2 [E,C]>[F,C] | [C,C]2 [G,,=B,]>[G,,B,] [C,_B,]2 [F,A,]>[F,A,] | %14
w: knock, heed the knock of the|nail- pierc- èd hand; ~ ~|
 [F,C]2 [F,B,][F,A,] [F,C]2 | [E,B,][_E,A,] | [D,B,][D,B,][B,,D][B,,B,] [F,A,]2 [F,A,][F,A,] | %17
w: ~ ~ ~ ~|~ ~|~ ~ ~ ~ ~ Heed the|
 [C,G,]2 [C,C][C,C] [C,G,]2 [C,C]>[C,B,] | A,2 ^G,>G, [F,A,]2 |] %19
w: knock, heed the knock of the|nail- pierc- èd hand|
V:4
 x2 | x8 | x8 | x8 | x8 | x8 | x8 | x8 | x6 || x2 | x8 | x8 | x8 | x8 | x6 | x2 | x8 | x8 | %18
 F,4- x2 |] %19

